X:1
T:Anime pellegri
T:Anime pellegrine
T:Claudio Saracini
T:Source : Le terze Musische per cantar e sonar---Venetia---A.Vincenti---1620. Editor : André Vierendeels (14/01/16).
T:Notes : Original clefs : C1, F4 The original print was damaged (perhaps during WWII), necessitating an editorial addendum mm 27-28 Figures in BC are notated in original print
T:©
T:©
T:©
C:Claudio Saracini
Z:©
%%score 1 2
L:1/8
Q:1/4=124
M:4/4
K:F
V:1 treble nm="Soprano" snm="S"
V:2 bass nm="BC" snm="BC"
V:1
 z2 B2 BBBB | B6 A2 | G8 | AB c2 cc c2 | f6 ee | e8 | d8 | ff f4 Bc | d4 z2 d2 | A6 G2 | A8 | A8 | %12
w: A- ni- me pel- le-|gri- *|ne|che bra- ma- te'A- man- do|es- ser a-|ma-|te,|se vo- le- te dio-|ir mo-|ren- do'in|vo-|i,|
 cc c4 BA | d4 d4 | de f4 ed | c8 | B8 | d4 BBBB | B4 B2 AG | d4 d4 | cB A4 ED | ^C4 C4 | %22
w: ri- na- sce- te'in al-|tru- i,|ri- na- sce- te'in al-|tru-|i,|non vi di- vi- da|ma- i ne tuo|ne mio|sien con- fu- si'a vo-|le- ri,|
 cc ^c4 AE | E4 D4 | B4 ^FFFF | ^G4 G4 | A4 c4 |"^b" d4 B4 | BB d4 d2 | z2 cc e4 | e4 z fed | d8 | %32
w: la spe- ran- z'e pen-|sie- ri|fac- ci'u- na so- la|fe- de|un sol|de- si-|o due al- me|e due co-|ri un' al- ma'un|co-|
 c8 | e4 dcBc | d8 | c6 BA | A8 | G8 |] %38
w: re,|ne s'ia pre- mio d'a-|mor|al- tro ch'a-|mo-|re.|
V:2
"^b" G,,8 |"^b" G,,8- | G,,8 | F,,8 | F,,2 G,,2 A,,4- | A,,8 | D,8 | B,,6 _E,C, | B,,4 ^F,4- | %9
 F,4 _E,4 | D,8 | F,,2 G,,2 A,,4 | F,,6 G,,A,, | B,,4 B,,4 | B,,3 C, D,2 E,2 | F,8 | B,,8 | %17
"^b" G,,8- | G,,8 | F,,8 |"^#" F,,4 A,,4- |"^#" A,,4 A,,4 | F,,2 A,,2- A,,4 | A,,4 D,4 | G,,4 D,4 | %25
 E,8 | ^F,8 | G,4 G,,4 | G,,8 | C,8 | C,4 D,4 | G,,8 | C,8- | C,4 B,,4 | B,,8 | C,4 D,4 | D,,8 | %37
 G,,8 |] %38

